X:106
T: Parodie einer unbekannten Tageweise
N: A0123
O: Europa, Mitteleuropa, Deutschland
N: Haym v. Themar. Augsburg 1590 No. 8. Mixol. mit dor. Schluss.
R: Romanze, Ballade, Lied
M: 4/2
L: 1/4
K: D
G2B2A2 | d2=cB^c2d2 | d2B2G4 | z2
G2A2B2 | =c2A2d2d2 | (3=c2B2A2(3G3AG2 | D4z2
B2 | A2B=cd2c2 | d2B2G4 | z2
G2G2B2 | B2A2G2D2 | z2E2=F2G2 | _B2G2=F2z2 |
(3E3DEF(3G2z2B2 | A4=F2G2 | A4=F3E | D8 | z2

@@@ Tune index: 106
